X: 3267
T: Belfast Lasses, The
R: reel
M: 4/4
K: Gmajor
G2 (BG) dGBG|EAAG FAFD|G2 (BG) dGBG|1 EcAF G2G2:|2 egfa g2g2||
gddc BdBG|FAAG FAFD|gddc BdBG|EFGF G2G2|
gddc BdBG|EAAG FAFD|gdec BdBG|egfa g2g2||

